X:6
T:McLeod's Reel
S:American Veteran Fifer, #6
C:Donated by Major J.N. Bogart, Co. I .31st N.J. Vol.
M:4/4
L:1/8
Q:1/8=320
K:G 
%%MIDI program 72
%%MIDI transpose 8
%%MIDI ratio 3 1
|: d | G2 g2 edeg | BBBA B2 BA | G2 g2 edeg | AAAG A2 AB |
G2 g2 edeg | BBBA B2 BA | e2 e2 edef | gedB A2 z :|
|: B | GABc dGBG | BBBA B2 BA | GABc dGBG | AAAG A2 AB |
GABc dGBG | BBBA B2 Bc | eeed e2 df | gedB A2 z :|


